dist/img/icons/fire.svg

<svg width="13" height="14" viewBox="0 0 13 14" fill="none" xmlns="http://www.w3.org/2000/svg">
<g clip-path="url(#clip0)">
<path d="M4.40032 13.4998C2.95522 8.73801 6.00868 6.99935 6.00868 6.99935C5.79504 9.5403 7.23901 11.5199 7.23901 11.5199C7.77008 11.3596 8.78373 10.6108 8.78373 10.6108C8.78373 11.5199 8.24887 13.4987 8.24887 13.4987C8.24887 13.4987 10.1213 12.0509 10.7107 9.64636C11.2993 7.24178 9.58942 4.82772 9.58942 4.82772C9.69246 6.52964 9.11669 8.20354 7.98864 9.48234C8.04508 9.41719 8.09243 9.34484 8.12879 9.26643C8.33145 8.86112 8.65683 7.80769 8.4663 5.36826C8.19811 1.94396 5.09541 0.5 5.09541 0.5C5.36284 2.5864 4.56093 3.06709 2.68249 7.02738C0.804053 10.9869 4.40032 13.4998 4.40032 13.4998Z" fill="#F9451E"/>
</g>
<defs>
<clipPath id="clip0">
<rect width="13" height="13" fill="white" transform="translate(0 0.5)"/>
</clipPath>
</defs>
</svg>

<svg width="13" height="14" fill="none" xmlns="http://www.w3.org/2000/svg"><g clip-path="url(#clip0)"><path d="M4.4 13.5C2.955 8.738 6.01 7 6.01 7c-.214 2.54 1.23 4.52 1.23 4.52.531-.16 1.545-.91 1.545-.91 0 .91-.535 2.889-.535 2.889s1.872-1.448 2.462-3.853C11.3 7.242 9.59 4.828 9.59 4.828a6.448 6.448 0 01-1.6 4.654.922.922 0 00.14-.216c.202-.405.528-1.458.337-3.898C8.198 1.944 5.096.5 5.096.5c.267 2.086-.535 2.567-2.414 6.527C.804 10.987 4.4 13.5 4.4 13.5z" fill="#F9451E"/></g><defs><clipPath id="clip0"><path fill="#fff" transform="translate(0 .5)" d="M0 0h13v13H0z"/></clipPath></defs></svg>
